src/bundle/Resources/public/img/icons/cart.svg

<svg version="1.1" xmlns="http://www.w3.org/2000/svg" width="32" height="32" viewBox="0 0 32 32">
    <title>+icon/+oss/ecommerce</title>
    <g id="+icon/+oss/ecommerce" stroke="none" stroke-width="1" fill="none" fill-rule="evenodd">
        <path d="M26.3140868,29.3109328 C26.3140868,30.7828748 25.1209443,31.9760172 23.6490023,31.9760172 C22.1770602,31.9760172 20.9839178,30.7828748 20.9839178,29.3109328 C20.9839178,27.8389907 22.1770602,26.6458483 23.6490023,26.6458483 L23.6490023,26.6458483 C25.1209443,26.6458483 26.3140868,27.8389907 26.3140868,29.3109328 L26.3140868,29.3109328 Z M10.6593386,26.6468476 C9.18739656,26.6468476 7.99425413,27.83999 7.99425413,29.311932 C7.99425413,30.7838741 9.18739656,31.9770165 10.6593386,31.9770165 C12.1312806,31.9770165 13.3244231,30.7838741 13.3244231,29.311932 L13.3244231,29.311932 C13.3244231,27.83999 12.1312806,26.6468476 10.6593386,26.6468476 L10.6593386,26.6468476 Z M26.3140868,20.651157 C26.8956687,20.6501577 27.3893139,20.2774256 27.5701839,19.7577991 L27.5731818,19.7488055 L31.9030697,7.09090341 C31.9640259,6.94300971 32,6.77213253 32,6.59226181 C32,5.85679043 31.4034288,5.26021922 30.6679574,5.26021922 C30.0603941,5.26021922 29.5477625,5.6669269 29.3878775,6.22252756 L29.3858789,6.23152109 L25.3617712,17.9860725 L11.944415,17.9860725 L7.92030728,6.23152109 C7.92130656,6.22852325 7.92130656,6.2255254 7.92130656,6.22152828 C7.92130656,6.21753115 7.92130656,6.2145333 7.92030728,6.21153546 L7.92030728,6.21153546 L5.92174375,0.8823658 C5.73188021,0.363738563 5.24223215,0 4.66764513,0 C4.66564657,0 4.66464728,0 4.66264872,0 L1.33204259,0 C0.596571214,0 0,0.596571214 0,1.33204259 C0,2.06751397 0.596571214,2.66408519 1.33204259,2.66408519 L1.33204259,2.66408519 L3.74031165,2.66408519 L5.40611436,7.11088905 L9.52315523,19.1392437 L6.87505855,23.2632795 C6.74315336,23.467133 6.6642101,23.7159542 6.6642101,23.9827624 C6.6642101,24.7182338 7.25978203,25.3138057 7.99425413,25.314805 L26.3140868,25.314805 C27.0495581,25.314805 27.6461293,24.7182338 27.6461293,23.9827624 C27.6461293,23.247291 27.0495581,22.6507198 26.3140868,22.6507198 L26.3140868,22.6507198 L10.4354995,22.6507198 L11.717578,20.6521563 L26.3140868,20.651157 Z" id="cart-upload" fill="#131C26"></path>
    </g>
</svg>

<svg version="1.1" xmlns="http://www.w3.org/2000/svg" width="32" height="32" viewBox="0 0 32 32">
<title>cart</title>
<path fill="#333" d="M26.333 20.667c0.582-0.001 1.076-0.374 1.257-0.894l0.003-0.009 4.333-12.667c0.045-0.128 0.071-0.276 0.071-0.43 0-0.736-0.596-1.332-1.331-1.333h-23.077l-1.667-4.467c-0.195-0.511-0.68-0.867-1.249-0.867-0.003 0-0.005 0-0.008 0h-3.333c-0.736 0-1.333 0.597-1.333 1.333s0.597 1.333 1.333 1.333v0h2.41l1.667 4.45 4.12 12.037-2.65 4.127c-0.132 0.204-0.211 0.453-0.211 0.72 0 0.736 0.596 1.332 1.331 1.333h18.333c0.736 0 1.333-0.597 1.333-1.333s-0.597-1.333-1.333-1.333v0h-15.89l1.283-2zM8.533 8h20.267l-3.42 10h-13.427zM13.333 29.333c0 1.473-1.194 2.667-2.667 2.667s-2.667-1.194-2.667-2.667c0-1.473 1.194-2.667 2.667-2.667v0c1.473 0 2.667 1.194 2.667 2.667v0zM26.333 29.333c0 1.473-1.194 2.667-2.667 2.667s-2.667-1.194-2.667-2.667c0-1.473 1.194-2.667 2.667-2.667v0c1.473 0 2.667 1.194 2.667 2.667v0z"></path>
</svg>
